X: 22931
T: Larry Redican's
R: jig
M: 6/8
K: Fmajor
C|:~F3 GFD|CFA cag|fdc dcA|
cAF .G2 C|~F3 GFD|A,CF Acf|
dcA cAF|1 GFD .F2C:|2 GFD FAc||
~f3 edc|def cAF|CFA CFA|
cAF GAc|fgf edc|def cAF|
~B3 .G2 B|AFF FAc|fgf edc|
def cAF|CFA CFA|cAF GAc|
~f3 ~g3|afd cAG|AFD CFA|GFE .F2 C||

